assets/flags-color/Ke.svg

<svg xmlns="http://www.w3.org/2000/svg" viewBox="0 0 512 512"><path fill="#73af00" d="M0 341.33h512V512H0z"/><path fill="#464655" d="M0 0h512v170.67H0z"/><path fill="#c8414b" d="M0 170.67h512v170.67H0z"/><g fill="#f5f5f5"><path d="M0 161.68h512v26.947H0zM0 323.37h512v26.947H0z"/><path d="M328.146 142.469c10.85-22.371 22.169-74.194 22.169-74.194s-33.69 40.973-44.54 63.344c-2.274 4.689-1.31 10.081 1.976 13.729l-123.58 254.794 8.389 4.069 123.581-254.794c4.899.322 9.731-2.259 12.005-6.948z"/><path d="M183.854 142.469c-10.85-22.371-22.169-74.194-22.169-74.194s33.69 40.973 44.54 63.344c2.274 4.689 1.31 10.081-1.976 13.729L327.83 400.142l-8.389 4.069-123.582-254.794c-4.899.322-9.731-2.259-12.005-6.948z"/></g><path fill="#c8414b" d="M323.368 256c0 74.413-54.966 134.737-67.368 134.737S188.632 330.413 188.632 256 243.598 121.263 256 121.263c12.402 0 67.368 60.324 67.368 134.737z"/><g fill="#464655"><path d="M309.895 321.007c7.937-19.28 13.474-41.424 13.474-65.007s-5.537-45.727-13.474-65.007c-7.937 19.28-13.474 41.424-13.474 65.007s5.537 45.727 13.474 65.007zM202.105 190.993c-7.937 19.28-13.474 41.424-13.474 65.007s5.537 45.727 13.474 65.007c7.937-19.28 13.474-41.424 13.474-65.007s-5.537-45.727-13.474-65.007z"/></g><g fill="#f5f5f5"><ellipse cx="256" cy="256" rx="13.474" ry="20.21"/><path d="M258.021 121.263v114.526c3.674-7.647 10.189-30.243 10.189-57.263.001-27.022-6.515-49.616-10.189-57.263zM253.979 121.263c-3.674 7.647-10.189 30.241-10.189 57.263 0 27.02 6.516 49.616 10.189 57.263V121.263zM258.021 276.211v114.526c3.674-7.647 10.189-30.243 10.189-57.263.001-27.022-6.515-49.617-10.189-57.263zM253.979 276.211c-3.674 7.647-10.189 30.241-10.189 57.263 0 27.02 6.516 49.616 10.189 57.263V276.211z"/></g></svg>

<svg xmlns="http://www.w3.org/2000/svg" x="0" y="0" enable-background="new 0 0 512 512" version="1.1" viewBox="0 0 512 512" xml:space="preserve"><path fill="#73AF00" d="M0 341.33H512V512H0z"/><path fill="#464655" d="M0 0H512V170.67H0z"/><path fill="#C8414B" d="M0 170.67H512V341.34H0z"/><g fill="#F5F5F5"><path d="M0 161.68H512V188.627H0z"/><path d="M0 323.37H512V350.317H0z"/><path d="M328.146 142.469c10.85-22.371 22.169-74.194 22.169-74.194s-33.69 40.973-44.54 63.344c-2.274 4.689-1.31 10.081 1.976 13.729l-123.58 254.794 8.389 4.069 123.581-254.794c4.899.322 9.731-2.259 12.005-6.948z"/><path d="M183.854 142.469c-10.85-22.371-22.169-74.194-22.169-74.194s33.69 40.973 44.54 63.344c2.274 4.689 1.31 10.081-1.976 13.729L327.83 400.142l-8.389 4.069-123.582-254.794c-4.899.322-9.731-2.259-12.005-6.948z"/></g><path fill="#C8414B" d="M323.368 256c0 74.413-54.966 134.737-67.368 134.737S188.632 330.413 188.632 256 243.598 121.263 256 121.263c12.402 0 67.368 60.324 67.368 134.737z"/><g fill="#464655"><path d="M309.895 321.007c7.937-19.28 13.474-41.424 13.474-65.007s-5.537-45.727-13.474-65.007c-7.937 19.28-13.474 41.424-13.474 65.007s5.537 45.727 13.474 65.007zM202.105 190.993c-7.937 19.28-13.474 41.424-13.474 65.007s5.537 45.727 13.474 65.007c7.937-19.28 13.474-41.424 13.474-65.007s-5.537-45.727-13.474-65.007z"/></g><g fill="#F5F5F5"><ellipse cx="256" cy="256" rx="13.474" ry="20.21"/><path d="M258.021 121.263v114.526c3.674-7.647 10.189-30.243 10.189-57.263.001-27.022-6.515-49.616-10.189-57.263zM253.979 121.263c-3.674 7.647-10.189 30.241-10.189 57.263 0 27.02 6.516 49.616 10.189 57.263V121.263zM258.021 276.211v114.526c3.674-7.647 10.189-30.243 10.189-57.263.001-27.022-6.515-49.617-10.189-57.263zM253.979 276.211c-3.674 7.647-10.189 30.241-10.189 57.263 0 27.02 6.516 49.616 10.189 57.263V276.211z"/></g></svg>
